X:1
T:Tom O'Neil
M:4/4
L:1/4
K:Eb
 E/2| E f3/4- e/4 c/2d/2 e| B B B E| F G E3/2 E/2| E2 z|B/2-A/2| G B e f|\
 e2 e B| e ed/2-B/2 c| B2 z| B| G3/2 B/2 e3/2 f/2| e2 e B/2B/2| e ed/2-B/2 c|\
 B2 z| E| C/2 g3/2 e B| c/2c/2 B E/2E/2 F/2G/2| E3/2 E/2 E3/2||

